_includes/icons/color-budget.svg

<svg fill="#666" height="50" viewBox="0 0 48 48" width="50" xmlns="http://www.w3.org/2000/svg"><path d="m37.25 45h-2.625v-1.875h3.375z" fill="#ff9800"/><path d="m22 37-5-6v-6h10v6z" fill="#ff9800"/><path d="m33 19c0 1.105469-.894531 2-2 2s-2-.894531-2-2 .894531-2 2-2 2 .894531 2 2m-18 0c0-1.105469-.894531-2-2-2s-2 .894531-2 2 .894531 2 2 2 2-.894531 2-2" fill="#f9a825"/><path d="m31 13c0-7.636719-18-4.972656-18 0v7c0 4.972656 4.027344 9 9 9s9-4.027344 9-9z" fill="#ffb74d"/><path d="m22 4c-6.074219 0-10 4.925781-10 11v2.285156l2 1.714844v-5l12-4 4 4v5l2-1.742187v-2.257813c0-4.023437-1.039062-8.015625-6-9l-1-2z" fill="#424242"/><path d="m25 19c0-.550781.449219-1 1-1s1 .449219 1 1-.449219 1-1 1-1-.449219-1-1m-8 0c0 .550781.449219 1 1 1s1-.449219 1-1-.449219-1-1-1-1 .449219-1 1" fill="#784719"/><path d="m22 43-5-12 5 1 5-1z" fill="#fff"/><path d="m21 35-.667969 4.464844 1.667969 4 1.667969-4-.667969-4.464844 1-1-2-2-2 2z" fill="#212121"/><path d="m35 35.578125c-3.257812-3.707031-8-4.578125-8-4.578125l-5 12-5-12s-11 1.984375-11 13h29z" fill="#90a4ae"/><path d="m22 26c-2 0-2-2-2-2h4s0 2-2 2z" fill="#fff"/><path d="m40 27-11.765625 10.925781 6.488281 6.0625 11.277344-10.925781z" fill="#1b5e20"/><path d="m35.9375 23-9.9375 17.691406 9.0625 5.308594 9.9375-17.691406z" fill="#388e3c"/><path d="m36.683594 25.753906 5.613281 3.289063-7.980469 14.203125-5.609375-3.289063z" fill="#a5d6a7"/><g fill="#388e3c"><path d="m40.253906 26.207031c-.714843-.417968-1.632812-.179687-2.050781.535157-.417969.714843-.175781 1.636718.539063 2.054687.714843.417969 1.632812.175781 2.050781-.539062.417969-.714844.179687-1.632813-.539063-2.050782z"/><path d="m32.253906 40.207031c-.714843-.421875-1.632812-.179687-2.050781.535157-.417969.714843-.175781 1.632812.539063 2.050781.714843.421875 1.632812.179687 2.050781-.535156.417969-.714844.175781-1.632813-.539063-2.050782z"/><path d="m37.265625 31.480469c-1.667969-.976563-3.8125-.414063-4.789062 1.253906-.972657 1.667969-.414063 3.8125 1.253906 4.785156 1.667969.976563 3.8125.414063 4.789062-1.253906.976563-1.667969.414063-3.808594-1.253906-4.785156z"/></g><path d="m40.332031 38.28125-1.992187-1.121094c-.730469-.429687-1.78125.035157-2.347656 1.039063l-1.640625 2.90625c-.566407 1.003906-.433594 2.167969.296875 2.601562l2.035156 1.144532c.730469.410156 1.765625-.058594 2.324219-1.050782l1.640625-2.90625c.574218-1.015625.429687-2.195312-.316407-2.613281z" fill="#ffb74d"/></svg>

<svg xmlns="http://www.w3.org/2000/svg" viewBox="0 0 48 48" width="50" height="50" fill="#666"><path d="M 37.25 45 L 34.625 45 L 34.625 43.125 L 38 43.125 Z" fill="#ff9800"/><path d="M 22 37 L 17 31 L 17 25 L 27 25 L 27 31 Z" fill="#ff9800"/><path d="M 33 19 C 33 20.105469 32.105469 21 31 21 C 29.894531 21 29 20.105469 29 19 C 29 17.894531 29.894531 17 31 17 C 32.105469 17 33 17.894531 33 19 M 15 19 C 15 17.894531 14.105469 17 13 17 C 11.894531 17 11 17.894531 11 19 C 11 20.105469 11.894531 21 13 21 C 14.105469 21 15 20.105469 15 19" fill="#f9a825"/><path d="M 31 13 C 31 5.363281 13 8.027344 13 13 L 13 20 C 13 24.972656 17.027344 29 22 29 C 26.972656 29 31 24.972656 31 20 Z" fill="#ffb74d"/><path d="M 22 4 C 15.925781 4 12 8.925781 12 15 L 12 17.285156 L 14 19 L 14 14 L 26 10 L 30 14 L 30 19 L 32 17.257813 L 32 15 C 32 10.976563 30.960938 6.984375 26 6 L 25 4 Z" fill="#424242"/><path d="M 25 19 C 25 18.449219 25.449219 18 26 18 C 26.550781 18 27 18.449219 27 19 C 27 19.550781 26.550781 20 26 20 C 25.449219 20 25 19.550781 25 19 M 17 19 C 17 19.550781 17.449219 20 18 20 C 18.550781 20 19 19.550781 19 19 C 19 18.449219 18.550781 18 18 18 C 17.449219 18 17 18.449219 17 19" fill="#784719"/><path d="M 22 43 L 17 31 L 22 32 L 27 31 Z" fill="#fff"/><path d="M 21 35 L 20.332031 39.464844 L 22 43.464844 L 23.667969 39.464844 L 23 35 L 24 34 L 22 32 L 20 34 Z" fill="#212121"/><path d="M 35 35.578125 C 31.742188 31.871094 27 31 27 31 L 22 43 L 17 31 C 17 31 6 32.984375 6 44 L 35 44 Z" fill="#90a4ae"/><path d="M 22 26 C 20 26 20 24 20 24 L 24 24 C 24 24 24 26 22 26 Z" fill="#fff"/><path d="M 40 27 L 28.234375 37.925781 L 34.722656 43.988281 L 46 33.0625 Z" fill="#1b5e20"/><path d="M 35.9375 23 L 26 40.691406 L 35.0625 46 L 45 28.308594 Z" fill="#388e3c"/><path d="M 36.683594 25.753906 L 42.296875 29.042969 L 34.316406 43.246094 L 28.707031 39.957031 L 36.683594 25.753906" fill="#a5d6a7"/><path d="M 40.253906 26.207031 C 39.539063 25.789063 38.621094 26.027344 38.203125 26.742188 C 37.785156 27.457031 38.027344 28.378906 38.742188 28.796875 C 39.457031 29.214844 40.375 28.972656 40.792969 28.257813 C 41.210938 27.542969 40.972656 26.625 40.253906 26.207031 Z" fill="#388e3c"/><path d="M 32.253906 40.207031 C 31.539063 39.785156 30.621094 40.027344 30.203125 40.742188 C 29.785156 41.457031 30.027344 42.375 30.742188 42.792969 C 31.457031 43.214844 32.375 42.972656 32.792969 42.257813 C 33.210938 41.542969 32.96875 40.625 32.253906 40.207031 Z" fill="#388e3c"/><path d="M 37.265625 31.480469 C 35.597656 30.503906 33.453125 31.066406 32.476563 32.734375 C 31.503906 34.402344 32.0625 36.546875 33.730469 37.519531 C 35.398438 38.496094 37.542969 37.933594 38.519531 36.265625 C 39.496094 34.597656 38.933594 32.457031 37.265625 31.480469 Z" fill="#388e3c"/><path d="M 40.332031 38.28125 L 38.339844 37.160156 C 37.609375 36.730469 36.558594 37.195313 35.992188 38.199219 L 34.351563 41.105469 C 33.785156 42.109375 33.917969 43.273438 34.648438 43.707031 L 36.683594 44.851563 C 37.414063 45.261719 38.449219 44.792969 39.007813 43.800781 L 40.648438 40.894531 C 41.222656 39.878906 41.078125 38.699219 40.332031 38.28125 Z" fill="#ffb74d"/></svg>
